proprietary/assets/icons/gebouwen/woning-met-verdieping.svg

<svg height="64" viewBox="0 0 64 64" width="64" xmlns="http://www.w3.org/2000/svg"><path d="m0 0h64v64h-64z" fill="none"/><path d="m61.2248 30.2057-28.4122-26.8855c-.4594-.4269-1.1659-.4269-1.6253 0l-28.4121 26.8855c-.4939.4595-.7752 1.1067-.7752 1.7847v1.7968c0 .6697.5374 1.2128 1.2 1.2128h4.8v25h48v-25h4.8c.6626 0 1.2-.5431 1.2-1.2128v-1.7968c0-.678-.2813-1.3252-.7752-1.7847zm-13.2248 4.7943h-9v6 4h-10v10h-13v-4h9v-10h10v-10h13z"/></svg>

<?xml version="1.0" encoding="utf-8"?>
<!-- Generator: Adobe Illustrator 19.1.0, SVG Export Plug-In . SVG Version: 6.00 Build 0)  -->
<svg version="1.2" baseProfile="tiny" xmlns="http://www.w3.org/2000/svg" xmlns:xlink="http://www.w3.org/1999/xlink" x="0px"
	 y="0px" width="64px" height="64px" viewBox="0 0 64 64" xml:space="preserve">
<g id="Box">
	<rect fill="none" width="64" height="64"/>
</g>
<g id="Icon">
	<path d="M61.2248,30.2057L32.8126,3.3202c-0.4594-0.4269-1.1659-0.4269-1.6253,0L2.7752,30.2057
		C2.2813,30.6652,2,31.3124,2,31.9904v1.7968C2,34.4569,2.5374,35,3.2,35H8v25h48V35h4.8c0.6626,0,1.2-0.5431,1.2-1.2128v-1.7968
		C62,31.3124,61.7187,30.6652,61.2248,30.2057z M48,35h-9v6v4H29v10H16v-4h9V41h10V31h13V35z"/>
</g>
</svg>
